X: 09026
T: DANNY FLYNN'S JIG
C: Bob McQuillen 24 Nov 92
B: Bob's Note Book 9 #26
R: jig
Z: 2019 John Chambers <jc:trillian.mit.edu>
M: 6/8
L: 1/8
K: D
A \
| ded cBA | Bcd A2g | fdB AFA | dAF E2F |
| DFA EGB | Adf ecA | Bgf ede | fdd d2 :|
|: e \
| fdf gab | afd ede | fdf edB | AFD EFA |
| Bdd Add | FAB AFD | GAB ABc | edd d2 :|
%%begintext align
%% From Philly comes Danny Flynn,
%% bringing his beautiful accordion with him, and boy! can he play
%% it! We get together every so often, at Augusta, or the Philly
%% Festival, or the Mermaid, and we do have such a good time, the
%% bunch of us, and we're all into Irish style, and it's great fun. How
%% lucky we all are to be together in this wonderful thing we enjoy so
%% much. See you at Augusta, Danny!
%%endtext

%%sep 1 1 500

%%sep 1 1 500

